packages/core/src/svgs/tokens/mono/AQTIS.svg

<svg width="24" height="24" viewBox="0 0 24 24" fill="none" xmlns="http://www.w3.org/2000/svg">
<path fill-rule="evenodd" clip-rule="evenodd" d="M12.147 3.17651L22 20.8236H2L12.147 3.17651ZM11.5176 5.40593L15.7647 10.8118L12.1411 4.32358L11.5176 5.40593ZM14.5764 10.2118L11.2177 5.93534L10.8883 6.50593L14.5705 10.2118H14.5764ZM10.5941 7.01181L10.5177 7.1471L12.1058 8.52945L10.5941 7.01181ZM13.947 10.8765L10.2353 7.64122L9.95287 8.1471L13.9529 10.8765H13.947ZM8.60587 10.4765L2.97646 20.2647H5.68234L8.60587 10.4765ZM6.27646 20.2647H7.91763L8.92352 11.3824L6.27646 20.2647ZM9.39411 12.2707L9.58228 19.2118L8.52351 19.953L9.39411 12.2707ZM11.553 20.2647H21.0411L20.2294 18.8177L11.553 20.2647ZM19.9412 18.2941L19.1176 16.8118L11.0705 19.7706L19.9412 18.2941ZM11.6058 18.9765L18.8412 16.3176L18.2823 15.3177L11.6058 18.9765ZM18.0118 14.8294L17.6765 14.2295L12.5294 17.8295L18.0118 14.8294ZM10.1412 18.8235L10.8706 18.3177L9.97648 12.6118L10.1412 18.8235ZM9.95287 8.83534L11.3883 17.953L17.2706 13.8354L9.95287 8.83534Z" fill="white"/>
</svg>

<svg xmlns="http://www.w3.org/2000/svg" width="24" height="24" fill="none" viewBox="0 0 24 24">
    <path fill="#fff" fill-rule="evenodd" d="M12.147 3.177 22 20.824H2zm-.63 2.229 4.248 5.406-3.624-6.488zm3.06 4.806-3.36-4.277-.329.57 3.682 3.707zm-3.983-3.2-.076.135 1.588 1.382zm3.353 3.865L10.235 7.64l-.282.506 4 2.73zm-5.341-.4-5.63 9.788h2.706zm-2.33 9.788h1.642l1.006-8.883zm3.118-7.994.188 6.94-1.058.742zm2.159 7.994h9.488l-.812-1.447zm8.388-1.97-.823-1.483-8.047 2.959zm-8.335.681 7.235-2.658-.559-1zm6.406-4.147-.335-.6-5.148 3.6zm-7.87 3.994.729-.505-.895-5.706zm-.19-9.988 1.436 9.118 5.883-4.118z" clip-rule="evenodd"/>
</svg>
